X:1
T: The 3 Musketeers (Adderbury)
M: 4/4
L: 1/8
R: Morris
C:Trad
K: G
Z: ABC by Mackin
W: Music formula for morris dance: (1/2)A.(AB)3A
P:A
D2 | "G" G2 D2 "(C)" G2 "(D)" A2 | "G" B2 AG "D" A2 Bc| "G" d2 G2 G2 B2 | "C" AGFE "D" D2 D2 | "G" G2 D2 "(C)" G2 "(D)" A2 | "G" B2 cB "D" A2 Bc| d2 G2 "D" BAGF |"G" G4 G2 |
P:B 
Bc | "G" d2> e2 "D" d2 c2| "G" B2 c2 d4 | "C" e2 e2 dcBA | "G" G4 "D" F2  D2 | "G" G2 D2 "(C)" G2 "(D)" A2 | "G" B2 cB "D" A2 Bc | "G" d2 G2 "D" BAGF| "G" G4 G2 ||
